X: 602
M: C|
L: 1/8
K: A
V: 1
e |\
|: (f/g/ |\
a)ecA d2d(f/g/ | a)ece B2Bf/g/ |\
(a/g/f/e/) (d/c/B/A/) defa | edTcB A2A :|
V: 2 clef=bass middle=d
z |\
a2a2 a2a2 | a2a2 b2b2 |\
a2a2 d2d2 | e2e2 A2A :|\
|: z |
a2a2 a2a2 | a2a2 b2b2 |\
a2a2 d2d2 | e2e2 A2A :|

